X:1
T: Miss Heather Bartel
C:Muriel A Johnstone
R:Strathspey
%Q: 128
K:D
M:4/4
L:1/16
|:A,2|D4 d4 dedc d3A|Bd3 A3d B2e2 e2f2|d4 c3d Bd3 A3F|G3B A3G FD3 D3A,|
D4 d4 ((3edc) d3A|((3Bcd) A3d B3e e3f|d4 c3d ((3Bcd) A3F|GB3 A3G FD3 D4|
f3d AF3 E3A ce3|d3B FD3 C3F Ac3|B3G DB,3 A,3D FA3|G3F E3D CA3 ((3Ace)|
((3fed) ((3AFD) E3^G ce3|dedc d3D C3F Ac3|B3G DB,3 A,3D FA3|G3F E3A FD3 D3:|
